X:1
T:Title
%%score { ( 1 4 ) | ( 2 3 ) }
L:1/8
Q:1/4=100
M:4/4
K:D
V:1 treble nm="Grand Piano"
V:4 treble 
V:2 bass 
V:3 bass 
V:1
 F>F F>[EG] [FA]2 [GB]2 | [FA]6 z2 | c>B A>G F2 [GB]2 | [FA]6 z2 | F>F F>G A2 B2 | [FA]6 [Ad]2 | %6
w: Allen~Alket * * * * *||||||
 [^Ge]>[G^d] [Ge]>[GB] =d2 c2 | [Fd]6 z2 | F>F F>G A2 B2 | [FA]6 z2 | c>c c>B A2 G2 | F6 [FA]2 | %12
w: ||||||
[M:7/8] [Fd]>[Fd][Fd]>[DA] [DGB]3 |[M:1/8] B |[M:4/4] [^Ge]>[Ge] [Ge]>[EB] [E=Gc]3 A | %15
w: |||
 [DAd]>[DAd] [DAd]>e d2 c-[Gc] | [Fd]6 z2 |] %17
w: ||
V:2
 [D,A,D]>[D,A,D] [D,A,D]>[D,D] [D,D]2 [D,D]2 | [D,D]6 z2 | %2
 [A,G]>[A,G] [A,F]>[K:bass][A,E] [D,A,D]2 [D,D]2 | [D,D]6 z2 | %4
 [D,A,D]>[D,A,D] [D,A,D]>[E,A,D] [F,D]2 [G,DG]2 | [D,D]6 [F,D]2 | %6
 [E,D]>[E,B,] [E,B,]>[E,D][K:treble] [A,G]2 [A,G]2 | [D,A,]6 z2 | %8
 [D,A,D]>[D,A,D] [D,A,D]>[E,A,D] [F,D]2 [G,DG]2 | [D,D]6 z2 | %10
 [A,EG]>[A,EG] [A,EG]>[A,DG] [A,CF]2[K:bass] [A,E]2 | [D,A,D]6 [D,A,]2 | %12
[M:7/8] [D,A,]>[D,A,][D,A,]>F, G,2 z |[M:1/8] D |[M:4/4] [E,D]>[E,D] [E,D]>^G, A,2 z C | %15
 F,>F, F,>[K:treble][G,B,G] [A,F]2[K:bass] [A,,A,]2 | [D,A,]6 z2 |] %17
V:3
 x8 | x8 | x7/2[K:bass] x9/2 | x8 | x8 | x8 | x4[K:treble] x4 | x8 | x8 | x8 | x6[K:bass] x2 | x8 | %12
[M:7/8] z z z z z2 F,- |[M:1/8] F, |[M:4/4] z4 z2 =G,2 | x7/2[K:treble] x5/2[K:bass] x2 | x8 |] %17
V:4
 x8 | x8 | x8 | x8 | x8 | x8 | x8 | x8 | x8 | x8 | x8 | x8 |[M:7/8] x7 |[M:1/8] x |[M:4/4] x8 | %15
 z4 z2 .E2 | x8 |] %17

